packages/core/src/svgs/asia.svg

<svg width="24" height="24" viewBox="0 0 24 24" fill="none" xmlns="http://www.w3.org/2000/svg">
<g clip-path="url(#clip0_31_6114)">
<path d="M0 0H24V24H0V0Z" fill="#F0F3FA"/>
<path fill-rule="evenodd" clip-rule="evenodd" d="M11.5457 16.3114V16.3157L11.6529 16.3071C13.9671 16.3843 16.1957 15.39 17.37 13.3757C18.5914 11.2757 18.0943 8.79 16.3629 7.11857L16.2086 6.97286L16.2 6.98143L15.3129 6.32572C13.997 5.56083 12.4561 5.2775 10.9543 5.52429C7.06715 6.15429 4.51715 10.0886 6.84858 13.7143L6.83143 13.7529L6.81858 13.7743L6.91715 13.8171C7.62108 14.7736 8.5916 15.5012 9.70715 15.9086L9.80572 15.9514V15.9429C10.3672 16.1402 10.9522 16.2627 11.5457 16.3071V16.3114ZM15.5143 8.24143L15.4286 8.23714C15.3938 8.23501 15.3606 8.22145 15.3343 8.19857C15.2199 8.10141 15.0843 8.03254 14.9383 7.99754C14.7924 7.96255 14.6403 7.96241 14.4943 7.99714L14.1943 8.21572C14.1557 8.24143 14.1257 8.23714 14.0957 8.21143C13.95 8.07429 13.7871 8.06143 13.6114 8.16857C13.5945 8.17967 13.5752 8.18662 13.5551 8.18885C13.535 8.19108 13.5147 8.18854 13.4957 8.18143L13.3457 8.11714C13.1014 8.00143 12.9257 7.92429 12.6429 8.14286C12.5963 8.179 12.539 8.19862 12.48 8.19862C12.421 8.19862 12.3637 8.179 12.3171 8.14286L12.2271 8.07429C12.0129 7.90286 11.7643 7.69286 11.4857 7.85143L11.2114 7.99286C11.1729 8.01 11.1429 8.00143 11.1257 7.96286C10.8643 7.44429 10.7229 7.48286 10.4614 7.55572C10.3543 7.58572 10.2214 7.62429 10.05 7.62857C9.75001 7.60286 9.51429 7.69714 9.35572 7.90286C9.34317 7.91828 9.33401 7.93617 9.32884 7.95537C9.32367 7.97457 9.32261 7.99465 9.32572 8.01429L9.36429 8.30143C9.36858 8.34 9.36429 8.34429 9.33858 8.31429L9.08572 7.96714C9.07956 7.95899 9.07185 7.95213 9.06302 7.94698C9.05419 7.94183 9.04442 7.93849 9.03429 7.93714C9.02432 7.93601 9.01423 7.93695 9.00465 7.9399C8.99506 7.94285 8.98618 7.94775 8.97858 7.95429L8.82429 8.08715C8.81626 8.09519 8.81022 8.105 8.80665 8.11579C8.80309 8.12659 8.8021 8.13807 8.80377 8.14931C8.80543 8.16056 8.80971 8.17126 8.81625 8.18056C8.82279 8.18985 8.83141 8.19749 8.84143 8.20286L8.94001 8.25857C8.94298 8.26025 8.94538 8.26278 8.94691 8.26583C8.94844 8.26889 8.94902 8.27233 8.94858 8.27572L8.94001 8.28429H8.93143L8.70001 8.25857C8.68483 8.25714 8.66955 8.25999 8.65591 8.26681C8.64227 8.27363 8.63082 8.28414 8.62286 8.29714C8.46429 8.55 8.49858 8.74715 8.73001 8.89715C8.76429 8.92286 8.76858 8.94857 8.74715 8.98286C8.54143 9.29572 8.83286 9.48 9.07286 9.63L9.22715 9.73714C9.25286 9.75429 9.24858 9.76286 9.21858 9.75857L8.63572 9.70286C8.61373 9.70015 8.59152 9.70565 8.57333 9.7183C8.55514 9.73096 8.54226 9.74987 8.53715 9.77143C8.53212 9.79248 8.53449 9.81462 8.54386 9.83413C8.55322 9.85363 8.56901 9.86933 8.58858 9.87857L8.92715 10.0371C8.93439 10.0408 8.94057 10.0463 8.94507 10.0531C8.94958 10.0598 8.95226 10.0676 8.95286 10.0757C8.95354 10.0837 8.95235 10.0917 8.94937 10.0992C8.94639 10.1066 8.94172 10.1133 8.93572 10.1186L8.75143 10.2771C8.74577 10.2817 8.74134 10.2876 8.73858 10.2943C8.73676 10.3013 8.73676 10.3087 8.73858 10.3157C8.73793 10.32 8.73793 10.3243 8.73858 10.3286C8.73858 10.3371 8.74715 10.3414 8.75143 10.3457L9.08143 10.6371C9.09646 10.6495 9.1073 10.6662 9.11248 10.6849C9.11765 10.7037 9.1169 10.7236 9.11033 10.7419C9.10376 10.7602 9.09169 10.776 9.07578 10.7872C9.05986 10.7983 9.04088 10.8043 9.02143 10.8043C8.88429 10.8043 8.81572 10.7486 8.81143 10.62C8.81078 10.6008 8.80583 10.5819 8.79693 10.5649C8.78802 10.5478 8.77541 10.533 8.76001 10.5214C8.55591 10.3713 8.31701 10.2754 8.06572 10.2429C8.04934 10.2403 8.03258 10.2431 8.01792 10.2508C8.00325 10.2585 7.99146 10.2708 7.98429 10.2857C7.9761 10.3011 7.97334 10.3187 7.97645 10.3358C7.97956 10.353 7.98836 10.3685 8.00143 10.38L8.07001 10.44L8.07858 10.4486C8.07876 10.45 8.07876 10.4514 8.07858 10.4529V10.4571C8.07786 10.4603 8.07627 10.4631 8.07399 10.4654C8.07172 10.4677 8.06885 10.4693 8.06572 10.47H8.06143L7.43572 10.4571C7.38927 10.4554 7.34374 10.4704 7.30751 10.4996C7.27129 10.5287 7.24681 10.57 7.23858 10.6157C7.17429 10.9414 7.60715 10.8943 7.79572 10.8729H7.81715C7.85152 10.8687 7.88621 10.8774 7.91465 10.8971C7.94308 10.9169 7.96329 10.9464 7.97143 10.98C7.97979 11.0152 7.97477 11.0522 7.95734 11.0839C7.93992 11.1156 7.91133 11.1396 7.87715 11.1514L7.68858 11.2114C7.66876 11.2175 7.65084 11.2285 7.63657 11.2436C7.62231 11.2586 7.61217 11.277 7.60715 11.2971C7.60256 11.3178 7.6033 11.3392 7.6093 11.3594C7.6153 11.3797 7.62636 11.3981 7.64143 11.4129L7.94572 11.7129L7.96715 11.7043L8.02286 11.79C8.30572 11.9871 8.35715 12.1757 8.43001 12.4243C8.44715 12.4843 8.46429 12.5529 8.49001 12.6214C8.49464 12.6369 8.50353 12.6507 8.51566 12.6613C8.52779 12.6719 8.54266 12.6789 8.55858 12.6814C8.75143 12.72 8.90143 12.7029 9.00858 12.63C9.21858 12.4886 9.42858 12.3557 9.64715 12.2271C9.74572 12.1671 9.79286 12.0729 9.77572 11.94C9.77444 11.9233 9.76909 11.9071 9.76012 11.8929C9.75116 11.8787 9.73886 11.8669 9.72429 11.8586C9.64553 11.8124 9.55843 11.7821 9.46798 11.7696C9.37752 11.7571 9.28549 11.7626 9.19715 11.7857C9.15429 11.7943 9.12001 11.7857 9.09001 11.7471L8.89286 11.4986C8.88716 11.4929 8.8832 11.4856 8.88142 11.4778C8.87964 11.4699 8.88012 11.4617 8.88281 11.4541C8.88549 11.4464 8.89028 11.4397 8.89661 11.4347C8.90293 11.4297 8.91055 11.4266 8.91858 11.4257C8.92825 11.4221 8.9389 11.4221 8.94858 11.4257C9.05572 11.4729 9.15001 11.5243 9.23572 11.5714C9.50143 11.7129 9.70715 11.8243 10.1014 11.7386C10.1186 11.7343 10.1357 11.7386 10.1529 11.7429C10.17 11.7514 10.1829 11.7643 10.1871 11.7857C10.2643 11.9614 10.3929 12.06 10.5857 12.0729C10.62 12.0771 10.6414 12.0986 10.65 12.1329C10.7057 12.4329 10.8129 12.7157 10.9629 12.9814C10.9718 12.9979 10.9858 13.011 11.0028 13.0187C11.0198 13.0264 11.0389 13.0284 11.0571 13.0243C11.1257 13.0071 11.1686 12.9514 11.1857 12.8529L11.1171 12.7757C11.1343 12.7586 11.16 12.75 11.1771 12.7457L11.1514 12.5057C11.1471 12.4629 11.1643 12.45 11.2071 12.4629L11.3357 12.4929C11.3537 12.4975 11.3726 12.4967 11.3902 12.4906C11.4077 12.4845 11.4231 12.4734 11.4343 12.4586L11.76 12.0043C11.7724 11.9879 11.7887 11.975 11.8074 11.9668C11.8262 11.9585 11.8468 11.9552 11.8671 11.9571C11.8875 11.9592 11.907 11.9666 11.9236 11.9787C11.9401 11.9907 11.9532 12.007 11.9614 12.0257C12.06 12.2271 12.2014 12.3857 12.3986 12.4971C12.4286 12.5143 12.45 12.54 12.4543 12.5829C12.4971 12.8829 12.6214 13.1443 12.8186 13.3757L12.8486 13.4186C12.8657 13.4614 12.8571 13.47 12.8229 13.44C12.6986 13.3243 12.5271 13.2 12.3514 13.2171C12.3171 13.2214 12.3086 13.2386 12.3343 13.2686L12.8486 13.8986L12.9343 13.95L12.9171 13.9929C12.9857 14.0743 13.0543 14.1214 13.1314 14.1514C13.1387 14.154 13.1465 14.1545 13.154 14.153C13.1616 14.1515 13.1686 14.148 13.1743 14.1429C13.1806 14.1378 13.1855 14.1312 13.1885 14.1237C13.1915 14.1162 13.1925 14.108 13.1914 14.1C13.17 13.9048 13.084 13.7223 12.9471 13.5814C12.9453 13.5782 12.9443 13.5745 12.9443 13.5707C12.9443 13.567 12.9453 13.5633 12.9471 13.56C12.9506 13.5555 12.9556 13.5524 12.9613 13.5516C12.9669 13.5508 12.9726 13.5523 12.9771 13.5557L12.99 13.5643H12.9986L13.0071 13.5686C13.0193 13.5749 13.0328 13.5782 13.0465 13.5782C13.0602 13.5782 13.0737 13.5749 13.0859 13.5686C13.0981 13.5623 13.1086 13.5532 13.1165 13.542C13.1244 13.5308 13.1295 13.5179 13.1314 13.5043C13.134 13.4867 13.131 13.4687 13.1229 13.4529L12.7114 12.6386C12.7062 12.6272 12.7046 12.6145 12.7069 12.6022C12.7092 12.5899 12.7153 12.5787 12.7243 12.57C12.7339 12.5624 12.7456 12.5578 12.7579 12.5571C12.7702 12.5563 12.7824 12.5593 12.7929 12.5657C12.9086 12.6343 12.99 12.7371 13.0414 12.8657C13.0929 13.0114 13.1871 13.05 13.3243 12.99C13.4571 12.93 13.53 12.8614 13.5429 12.7757C13.5557 12.7114 13.5171 12.6343 13.4314 12.5357C13.3501 12.4362 13.2612 12.3431 13.1657 12.2571C13.1625 12.2483 13.1619 12.2386 13.1642 12.2295C13.1665 12.2203 13.1715 12.212 13.1786 12.2057C13.1861 12.2004 13.1951 12.1974 13.2043 12.1971L13.44 12.1586C13.4529 12.1586 13.4571 12.15 13.4614 12.1414C13.4614 12.1286 13.4657 12.12 13.4614 12.1114C13.4614 12.0943 13.4657 12.0857 13.4786 12.0814L14.0957 11.8286C14.1141 11.8208 14.1297 11.8076 14.1404 11.7908C14.1511 11.7739 14.1564 11.7542 14.1557 11.7343C14.1513 11.5115 14.0908 11.2933 13.98 11.1C13.9714 11.0851 13.9589 11.0728 13.9437 11.0644C13.9286 11.0561 13.9115 11.0521 13.8943 11.0529H13.7786C13.71 11.0486 13.7014 11.0229 13.7486 10.9757L13.8343 10.89C13.8643 10.8557 13.86 10.83 13.8129 10.8171L13.4657 10.7229C13.4569 10.7205 13.4489 10.7155 13.4428 10.7087C13.4367 10.7018 13.4328 10.6934 13.4314 10.6843C13.4305 10.6752 13.432 10.6661 13.4358 10.6578C13.4395 10.6495 13.4454 10.6424 13.4529 10.6371C13.7014 10.4743 13.9243 10.7443 14.0957 10.95L14.1814 11.0571C14.193 11.0714 14.2087 11.0816 14.2265 11.0862C14.2442 11.0909 14.263 11.0897 14.28 11.0829C14.3657 11.0571 14.4171 10.9971 14.4343 10.9029C14.4365 10.8859 14.4336 10.8687 14.426 10.8535C14.4183 10.8382 14.4063 10.8255 14.3914 10.8171C14.2586 10.7486 14.1986 10.6457 14.2157 10.5043C14.2176 10.4867 14.2254 10.4704 14.2379 10.4579C14.2504 10.4454 14.2667 10.4376 14.2843 10.4357C14.4514 10.4229 14.55 10.3286 14.5886 10.1571C14.5923 10.1416 14.6011 10.1278 14.6135 10.1177C14.6258 10.1076 14.6412 10.1019 14.6571 10.1014C14.67 10.1014 14.6871 10.1014 14.7 10.1143C14.7129 10.1229 14.7214 10.1357 14.7257 10.1529L14.8971 10.7229C14.91 10.7657 14.8971 10.7871 14.8543 10.7914C14.6357 10.8257 14.4986 10.9457 14.4471 11.1514C14.4402 11.1779 14.4418 11.2058 14.4519 11.2313C14.4619 11.2567 14.4797 11.2783 14.5029 11.2929C14.5267 11.3063 14.5544 11.3115 14.5815 11.3076C14.6086 11.3038 14.6337 11.291 14.6529 11.2714C14.7814 11.1514 14.9186 11.0614 15.0814 11.01C15.105 11.001 15.1263 10.9867 15.1434 10.9681C15.1605 10.9495 15.173 10.9271 15.18 10.9029C15.1882 10.8779 15.1905 10.8514 15.1868 10.8254C15.183 10.7994 15.1734 10.7745 15.1586 10.7529L14.9829 10.5C14.9761 10.4904 14.9729 10.4788 14.9737 10.4671C14.9745 10.4554 14.9792 10.4443 14.9871 10.4357C14.993 10.4296 15.0004 10.4251 15.0086 10.4229L15.1971 10.3757C15.24 10.3629 15.24 10.3457 15.2143 10.32C14.9571 10.0757 14.6914 9.84 14.4214 9.61286C14.2757 9.48429 14.13 9.46286 13.95 9.43715C13.9071 9.42857 13.8986 9.40715 13.92 9.36857C14.04 9.17572 14.2543 9.24 14.4429 9.28714L14.5629 9.32143C14.6057 9.33 14.6229 9.31286 14.6271 9.27857C14.64 9.13286 14.7 9.01286 14.8071 8.91857C14.8414 8.88857 14.8629 8.89715 14.8757 8.94429C14.9357 9.18857 15.0386 9.33 15.1629 9.50143L15.2571 9.63429C15.3214 9.73286 15.3986 9.75 15.4886 9.68572C15.5078 9.67195 15.5225 9.65281 15.5309 9.6307C15.5393 9.60859 15.541 9.58449 15.5357 9.56143C15.5328 9.54617 15.527 9.53161 15.5186 9.51857L15.2186 9.09C15.2151 9.08617 15.2122 9.08184 15.21 9.07715C15.206 9.06698 15.2051 9.05588 15.2074 9.04522C15.2097 9.03455 15.2151 9.02479 15.2229 9.01715C15.2289 9.01129 15.2363 9.0069 15.2443 9.00429L15.7843 8.82429C15.7947 8.81973 15.8036 8.8123 15.81 8.80286C15.8148 8.79619 15.8181 8.78861 15.8198 8.78061C15.8215 8.7726 15.8216 8.76433 15.82 8.7563C15.8184 8.74827 15.8151 8.74065 15.8105 8.73392C15.8058 8.72718 15.7998 8.72148 15.7929 8.71714L15.7414 8.68714C15.6643 8.64857 15.6686 8.63572 15.7543 8.64429L16.0971 8.68714C16.1314 8.68714 16.1529 8.67429 16.1529 8.64C16.1614 8.55429 16.2 8.49 16.2771 8.44714C16.2846 8.44295 16.2906 8.43663 16.2944 8.42899C16.2982 8.42136 16.2997 8.41275 16.2986 8.40429C16.2984 8.39607 16.2959 8.38806 16.2914 8.38122C16.2868 8.37439 16.2804 8.369 16.2729 8.36572C16.0864 8.28439 15.8848 8.24349 15.6814 8.24572H15.5143V8.24143ZM11.2586 13.2C11.2971 13.2343 11.3271 13.2557 11.3571 13.26C11.4 13.2686 11.4214 13.2471 11.4214 13.2086C11.4284 13.1531 11.4231 13.0967 11.4061 13.0434C11.3891 12.9902 11.3607 12.9412 11.3229 12.9L11.2586 12.9857L11.2543 12.9814H11.25V12.9771H11.2414V12.9729L11.2286 12.9643C11.2036 13.0136 11.189 13.0676 11.1857 13.1229L11.2714 13.1786L11.2586 13.2ZM11.2371 12.9429C11.2423 12.9366 11.2481 12.9309 11.2543 12.9257L11.2586 12.93C11.2522 12.9355 11.245 12.9398 11.2371 12.9429ZM14.2714 12.5443L14.1943 12.6943C14.1854 12.7109 14.1823 12.73 14.1854 12.7486C14.1885 12.7672 14.1977 12.7843 14.2114 12.7971L14.5971 13.2257C14.6073 13.2369 14.62 13.2454 14.6342 13.2506C14.6484 13.2559 14.6636 13.2576 14.6786 13.2557C14.7214 13.2514 14.7471 13.2257 14.7514 13.1829C14.7502 13.1625 14.7427 13.1431 14.73 13.1271C14.5817 12.9049 14.4824 12.6536 14.4386 12.39C14.4214 12.2829 14.3614 12.21 14.2671 12.18C14.2542 12.176 14.2404 12.1759 14.2275 12.1797C14.2145 12.1835 14.203 12.1911 14.1943 12.2014C14.1861 12.2115 14.181 12.2237 14.1794 12.2366C14.1779 12.2495 14.1801 12.2626 14.1857 12.2743L14.2714 12.48C14.2758 12.4902 14.278 12.5011 14.278 12.5121C14.278 12.5232 14.2758 12.5341 14.2714 12.5443ZM13.8129 13.0714C13.7957 13.3286 13.6671 13.4014 13.5129 13.4829C13.4529 13.5171 13.3843 13.5514 13.32 13.6071C13.3076 13.6172 13.2991 13.6313 13.296 13.6469C13.2929 13.6626 13.2953 13.6788 13.3029 13.6929C13.3029 13.7014 13.3114 13.7057 13.32 13.7143C13.5043 13.86 13.7186 13.9286 13.9543 13.9286C13.9705 13.9299 13.9868 13.9266 14.0012 13.919C14.0157 13.9114 14.0276 13.8999 14.0357 13.8857C14.1557 13.6586 14.2886 13.1229 14.01 12.9643C13.9905 12.953 13.9683 12.9471 13.9457 12.9471C13.9232 12.9471 13.901 12.953 13.8814 12.9643C13.8617 12.9747 13.845 12.99 13.833 13.0088C13.8209 13.0276 13.814 13.0492 13.8129 13.0714ZM14.8029 14.2414L13.2514 14.0657C13.2487 14.0647 13.2456 14.0647 13.2429 14.0657C13.2404 14.0679 13.2388 14.071 13.2386 14.0743V14.0786C13.2343 14.1043 13.2514 14.1343 13.2857 14.1643C13.3243 14.1943 13.3757 14.22 13.4486 14.25C13.6241 14.308 13.805 14.3482 13.9886 14.37L14.0186 14.3743C14.2024 14.3928 14.3876 14.3928 14.5714 14.3743C14.6443 14.3657 14.7 14.3486 14.7429 14.3314C14.7857 14.31 14.8114 14.2843 14.8114 14.2586V14.2457C14.8092 14.2432 14.8062 14.2417 14.8029 14.2414Z" fill="url(#paint0_linear_31_6114)"/>
<path fill-rule="evenodd" clip-rule="evenodd" d="M18.0943 8.22864C17.198 6.9973 15.9492 6.06688 14.5129 5.56032C13.0766 5.05375 11.5205 4.99489 10.05 5.39149C5.88001 6.51435 3.47144 10.7786 5.37858 14.8801C5.83404 15.7874 6.48022 16.5857 7.27286 17.2201C8.31797 18.0524 9.56697 18.5896 10.89 18.7758C13.05 19.0629 14.94 18.5829 16.5643 17.3444C19.4357 15.1501 20.1814 11.2629 18.0943 8.23292V8.22864ZM11.64 16.8772C16.0029 17.0744 20.1429 13.0201 17.6314 8.53721C16.0457 5.96578 13.0886 4.77006 10.1829 5.58864C6.84429 6.57864 4.56858 10.0972 6.13715 13.5043C6.60858 14.3786 7.23858 15.0901 8.03144 15.6472C9.09672 16.3838 10.3465 16.8083 11.64 16.8729V16.8772Z" fill="url(#paint1_linear_31_6114)"/>
</g>
<defs>
<linearGradient id="paint0_linear_31_6114" x1="12" y1="5.14286" x2="12" y2="18.8571" gradientUnits="userSpaceOnUse">
<stop stop-color="#112094"/>
<stop offset="1" stop-color="#1F1EF8"/>
</linearGradient>
<linearGradient id="paint1_linear_31_6114" x1="12" y1="5.14292" x2="12" y2="18.8572" gradientUnits="userSpaceOnUse">
<stop stop-color="#112094"/>
<stop offset="1" stop-color="#1F1EF8"/>
</linearGradient>
<clipPath id="clip0_31_6114">
<rect width="24" height="24" fill="white"/>
</clipPath>
</defs>
</svg>

<svg xmlns="http://www.w3.org/2000/svg" width="24" height="24" fill="none" viewBox="0 0 24 24"><g clip-path="url(#a)"><path fill="#F0F3FA" d="M0 0h24v24H0z"/><path fill="url(#b)" fill-rule="evenodd" d="M11.546 16.311v.005l.107-.009c2.314.077 4.543-.917 5.717-2.931 1.221-2.1.724-4.586-1.007-6.257l-.154-.146-.009.008-.887-.655a6.56 6.56 0 0 0-4.359-.802c-3.887.63-6.437 4.565-4.105 8.19l-.018.039-.012.021.098.043a6.03 6.03 0 0 0 2.79 2.092l.099.042v-.008c.561.197 1.146.32 1.74.364zm3.968-8.07-.085-.004a.16.16 0 0 1-.095-.038.96.96 0 0 0-.84-.202l-.3.219c-.038.025-.068.021-.098-.005q-.22-.205-.485-.042a.13.13 0 0 1-.115.012l-.15-.064c-.245-.116-.42-.193-.703.026a.266.266 0 0 1-.326 0l-.09-.069c-.214-.171-.463-.381-.741-.223l-.275.142q-.058.026-.085-.03c-.262-.519-.403-.48-.665-.407-.107.03-.24.068-.411.073-.3-.026-.536.068-.694.274a.14.14 0 0 0-.03.111l.038.287c.005.039 0 .043-.025.013l-.253-.347a.08.08 0 0 0-.052-.03.07.07 0 0 0-.055.017l-.155.133a.073.073 0 0 0 .017.116l.099.056a.02.02 0 0 1 .009.017l-.009.008h-.009L8.7 8.26a.08.08 0 0 0-.077.038c-.159.253-.124.45.107.6q.05.037.017.086c-.206.313.086.497.326.647l.154.107q.038.027-.008.022l-.583-.056a.09.09 0 0 0-.099.068.094.094 0 0 0 .052.108l.338.158a.05.05 0 0 1 .026.039.05.05 0 0 1-.017.043l-.185.158a.04.04 0 0 0-.012.017.04.04 0 0 0 0 .022v.013c0 .008.008.012.012.017l.33.291a.095.095 0 0 1-.005.15.1.1 0 0 1-.055.017c-.137 0-.205-.055-.21-.184a.13.13 0 0 0-.051-.099 1.5 1.5 0 0 0-.694-.278.08.08 0 0 0-.082.043.08.08 0 0 0 .017.094l.069.06.009.009v.008a.02.02 0 0 1-.013.013H8.06l-.625-.013a.19.19 0 0 0-.197.159c-.065.325.368.278.557.257h.021a.14.14 0 0 1 .154.107.146.146 0 0 1-.094.171l-.188.06a.12.12 0 0 0-.082.086.12.12 0 0 0 .034.116l.305.3.021-.009.056.086c.283.197.334.386.407.634.017.06.034.129.06.197a.09.09 0 0 0 .069.06q.288.058.45-.051.313-.21.638-.403c.099-.06.146-.154.129-.287a.1.1 0 0 0-.052-.081.7.7 0 0 0-.527-.073c-.043.008-.077 0-.107-.039l-.197-.248a.043.043 0 0 1 .004-.064.04.04 0 0 1 .022-.01.04.04 0 0 1 .03 0c.107.048.201.1.287.146.265.142.471.253.865.168.018-.005.035 0 .052.004q.027.011.034.043a.44.44 0 0 0 .399.287q.05.008.064.06c.056.3.163.583.313.848a.085.085 0 0 0 .094.043q.104-.025.129-.171l-.069-.077a.13.13 0 0 1 .06-.03l-.026-.24q-.007-.063.056-.043l.129.03a.1.1 0 0 0 .098-.034l.326-.455a.12.12 0 0 1 .107-.047.12.12 0 0 1 .094.069c.099.201.24.36.438.471.03.017.051.043.055.086.043.3.167.561.365.793l.03.043q.025.065-.026.021c-.124-.116-.296-.24-.472-.223q-.053.006-.017.052l.515.63.085.051-.017.043a.5.5 0 0 0 .214.158.04.04 0 0 0 .043-.008.05.05 0 0 0 .017-.043.88.88 0 0 0-.244-.519.02.02 0 0 1 0-.021.021.021 0 0 1 .03-.004l.013.008h.009l.008.005a.086.086 0 0 0 .116-.116l-.412-.814a.06.06 0 0 1 .013-.069.06.06 0 0 1 .069-.004.6.6 0 0 1 .248.3q.078.216.283.124.2-.088.219-.214c.013-.065-.026-.142-.112-.24q-.121-.15-.265-.279a.05.05 0 0 1 .013-.051.05.05 0 0 1 .025-.009l.236-.038c.013 0 .017-.009.021-.018 0-.012.005-.021 0-.03q0-.024.018-.03l.617-.252a.1.1 0 0 0 .06-.095 1.3 1.3 0 0 0-.176-.634.1.1 0 0 0-.086-.047h-.115q-.103-.006-.03-.077l.085-.086c.03-.034.026-.06-.021-.073l-.347-.094a.05.05 0 0 1-.035-.039.05.05 0 0 1 .022-.047c.248-.163.471.107.643.313l.085.107a.09.09 0 0 0 .099.026q.129-.039.154-.18a.09.09 0 0 0-.043-.086q-.2-.101-.175-.313a.08.08 0 0 1 .068-.068q.248-.02.305-.279a.07.07 0 0 1 .068-.056c.013 0 .03 0 .043.013a.06.06 0 0 1 .026.039l.171.57q.02.063-.043.068-.328.053-.407.36a.13.13 0 0 0 .056.142.124.124 0 0 0 .15-.022c.128-.12.266-.21.428-.261a.16.16 0 0 0 .099-.107.17.17 0 0 0-.021-.15l-.176-.253a.052.052 0 0 1 .004-.064.1.1 0 0 1 .022-.013l.188-.047c.043-.013.043-.03.017-.056q-.387-.366-.793-.707c-.145-.129-.291-.15-.471-.176q-.063-.011-.03-.068c.12-.193.334-.129.523-.082l.12.034c.043.009.06-.008.064-.042a.52.52 0 0 1 .18-.36q.05-.045.069.025c.06.245.163.386.287.557l.094.133q.096.148.232.052a.12.12 0 0 0 .047-.125.1.1 0 0 0-.017-.042l-.3-.429-.009-.013a.055.055 0 0 1 .034-.073l.54-.18a.1.1 0 0 0 .026-.021.06.06 0 0 0 .01-.047.06.06 0 0 0-.027-.039l-.052-.03q-.115-.056.013-.043l.343.043c.034 0 .056-.013.056-.047a.23.23 0 0 1 .124-.193.04.04 0 0 0 .022-.043.043.043 0 0 0-.026-.039 1.4 1.4 0 0 0-.592-.12h-.167zM11.26 13.2c.038.034.068.056.098.06.043.009.064-.013.064-.051a.39.39 0 0 0-.098-.309l-.064.086-.005-.005h-.004v-.004h-.009v-.004l-.012-.009a.4.4 0 0 0-.043.159l.085.056zm-.022-.257.017-.017.005.004a.1.1 0 0 1-.022.013m3.034-.399-.077.15q-.013.026-.009.055a.1.1 0 0 0 .026.048l.386.429a.1.1 0 0 0 .082.03q.064-.008.072-.073a.1.1 0 0 0-.021-.056 1.9 1.9 0 0 1-.291-.737c-.018-.107-.078-.18-.172-.21a.07.07 0 0 0-.073.021.07.07 0 0 0-.008.073l.085.206a.08.08 0 0 1 0 .064m-.458.527c-.017.258-.146.33-.3.412-.06.034-.129.068-.193.124a.07.07 0 0 0-.017.086q.002.01.017.021a1 1 0 0 0 .634.215.09.09 0 0 0 .082-.043c.12-.227.253-.763-.026-.922a.13.13 0 0 0-.129 0 .13.13 0 0 0-.068.107m.99 1.17-1.552-.175h-.008l-.004.008v.005q-.006.039.047.085a.7.7 0 0 0 .163.086q.263.087.54.12l.03.004q.276.029.552 0a.7.7 0 0 0 .172-.043q.066-.033.068-.072v-.013z" clip-rule="evenodd"/><path fill="url(#c)" fill-rule="evenodd" d="M18.094 8.229A7.53 7.53 0 0 0 10.05 5.39c-4.17 1.123-6.579 5.388-4.671 9.49a7.05 7.05 0 0 0 1.894 2.34 7.5 7.5 0 0 0 3.617 1.555c2.16.287 4.05-.193 5.674-1.432 2.872-2.194 3.617-6.081 1.53-9.111zm-6.454 8.648c4.363.197 8.503-3.857 5.991-8.34-1.585-2.571-4.542-3.767-7.448-2.948-3.339.99-5.614 4.508-4.046 7.915a6.1 6.1 0 0 0 1.894 2.143 6.96 6.96 0 0 0 3.609 1.226z" clip-rule="evenodd"/></g><defs><linearGradient id="b" x1="12" x2="12" y1="5.143" y2="18.857" gradientUnits="userSpaceOnUse"><stop stop-color="#112094"/><stop offset="1" stop-color="#1F1EF8"/></linearGradient><linearGradient id="c" x1="12" x2="12" y1="5.143" y2="18.857" gradientUnits="userSpaceOnUse"><stop stop-color="#112094"/><stop offset="1" stop-color="#1F1EF8"/></linearGradient><clipPath id="a"><path fill="#fff" d="M0 0h24v24H0z"/></clipPath></defs></svg>
